resources/svg/layers-o.svg

<svg xmlns="http://www.w3.org/2000/svg" viewBox="0 0 15 15" fill="none"><path d="M7.5 1.5L7.69696 1.04043C7.57119 0.986524 7.42881 0.986524 7.30304 1.04043L7.5 1.5ZM0.5 4.5L0.30304 4.04043C0.119198 4.11922 0 4.29999 0 4.5C0 4.70001 0.119198 4.88078 0.30304 4.95957L0.5 4.5ZM7.5 7.5L7.30304 7.95957C7.42881 8.01348 7.57119 8.01348 7.69696 7.95957L7.5 7.5ZM14.5 4.5L14.697 4.95957C14.8808 4.88078 15 4.70001 15 4.5C15 4.29999 14.8808 4.11922 14.697 4.04043L14.5 4.5ZM7.5 10.5L7.30304 10.9596L7.5 11.044L7.69696 10.9596L7.5 10.5ZM7.5 13.5L7.30304 13.9596L7.5 14.044L7.69696 13.9596L7.5 13.5ZM7.30304 1.04043L0.30304 4.04043L0.69696 4.95957L7.69696 1.95957L7.30304 1.04043ZM0.30304 4.95957L7.30304 7.95957L7.69696 7.04043L0.69696 4.04043L0.30304 4.95957ZM7.69696 7.95957L14.697 4.95957L14.303 4.04043L7.30304 7.04043L7.69696 7.95957ZM14.697 4.04043L7.69696 1.04043L7.30304 1.95957L14.303 4.95957L14.697 4.04043ZM0.30304 7.95957L7.30304 10.9596L7.69696 10.0404L0.69696 7.04043L0.30304 7.95957ZM7.69696 10.9596L14.697 7.95957L14.303 7.04043L7.30304 10.0404L7.69696 10.9596ZM0.30304 10.9596L7.30304 13.9596L7.69696 13.0404L0.69696 10.0404L0.30304 10.9596ZM7.69696 13.9596L14.697 10.9596L14.303 10.0404L7.30304 13.0404L7.69696 13.9596Z" fill="black"/></svg>

<svg xmlns="http://www.w3.org/2000/svg" viewBox="0 0 15 15" fill="none"><path d="M7.5 1.5l.197-.46a.5.5 0 00-.394 0l.197.46zm-7 3l-.197-.46a.5.5 0 000 .92L.5 4.5zm7 3l-.197.46a.5.5 0 00.394 0L7.5 7.5zm7-3l.197.46a.5.5 0 000-.92l-.197.46zm-7 6l-.197.46.197.084.197-.084-.197-.46zm0 3l-.197.46.197.084.197-.084-.197-.46zM7.303 1.04l-7 3 .394.92 7-3-.394-.92zm-7 3.92l7 3 .394-.92-7-3-.394.92zm7.394 3l7-3-.394-.92-7 3 .394.92zm7-3.92l-7-3-.394.92 7 3 .394-.92zM.303 7.96l7 3 .394-.92-7-3-.394.92zm7.394 3l7-3-.394-.92-7 3 .394.92zm-7.394 0l7 3 .394-.92-7-3-.394.92zm7.394 3l7-3-.394-.92-7 3 .394.92z" fill="currentColor"/></svg>
